src/lib/packages/icons/src/assets/filled/twitter.svg

<svg width="24" height="24" viewBox="0 0 24 24" fill="none" xmlns="http://www.w3.org/2000/svg">
<path d="M19.94 7.99002C19.95 8.16002 19.95 8.34002 19.95 8.52002C19.95 13.86 15.83 20.01 8.28999 20.01C5.96999 20.01 3.81 19.35 2 18.2C2.33 18.24 2.65001 18.25 2.99001 18.25C4.91001 18.25 6.67 17.61 8.08 16.53C6.28 16.49 4.77 15.33 4.25 13.73C4.5 13.77 4.76 13.79 5.02 13.79C5.39 13.79 5.76001 13.74 6.10001 13.65C4.22001 13.27 2.81 11.65 2.81 9.69002V9.64001C3.36 9.94001 3.99 10.13 4.66 10.15C3.56 9.42001 2.83 8.19001 2.83 6.79001C2.83 6.04001 3.03 5.35002 3.39 4.75002C5.41 7.20002 8.44 8.80001 11.84 8.98001C11.78 8.68001 11.74 8.37001 11.74 8.06001C11.74 5.83001 13.57 4.02002 15.84 4.02002C17.02 4.02002 18.09 4.51001 18.83 5.29001C19.76 5.12001 20.64 4.78002 21.43 4.32002C21.13 5.26002 20.48 6.05001 19.63 6.54001C20.45 6.45001 21.25 6.23001 21.99 5.92001C21.43 6.72001 20.73 7.43001 19.93 8.01001L19.94 7.99002Z" fill="currentColor"/>
</svg>

<svg xmlns="http://www.w3.org/2000/svg" width="24" height="24" fill="none"><path fill="currentColor" d="M19.94 7.99c.01.17.01.35.01.53 0 5.34-4.12 11.49-11.66 11.49-2.32 0-4.48-.66-6.29-1.81.33.04.65.05.99.05 1.92 0 3.68-.64 5.09-1.72-1.8-.04-3.31-1.2-3.83-2.8.25.04.51.06.77.06.37 0 .74-.05 1.08-.14-1.88-.38-3.29-2-3.29-3.96v-.05c.55.3 1.18.49 1.85.51-1.1-.73-1.83-1.96-1.83-3.36 0-.75.2-1.44.56-2.04C5.41 7.2 8.44 8.8 11.84 8.98c-.06-.3-.1-.61-.1-.92 0-2.23 1.83-4.04 4.1-4.04 1.18 0 2.25.49 2.99 1.27.93-.17 1.81-.51 2.6-.97-.3.94-.95 1.73-1.8 2.22.82-.09 1.62-.31 2.36-.62-.56.8-1.26 1.51-2.06 2.09l.01-.02Z"/></svg>
